images/rc.svg

<?xml version="1.0" encoding="UTF-8" standalone="no"?><!DOCTYPE svg PUBLIC "-//W3C//DTD SVG 1.1//EN" "http://www.w3.org/Graphics/SVG/1.1/DTD/svg11.dtd"><svg width="100%" height="100%" viewBox="0 0 57 57" version="1.1" xmlns="http://www.w3.org/2000/svg" xmlns:xlink="http://www.w3.org/1999/xlink" xml:space="preserve" xmlns:serif="http://www.serif.com/" style="fill-rule:evenodd;clip-rule:evenodd;"><ellipse id="cir_1" cx="28.985" cy="29.244" rx="24.985" ry="25.244" style="fill:#666;"/><circle id="cir_11" serif:id="cir_1" cx="28.5" cy="28.5" r="24.5" style="fill:#fafafa;"/><circle id="cir_2" cx="28.5" cy="28.5" r="22.05" style="fill:#fafafa;stroke:#f00;stroke-width:2px;"/><g><path d="M18.041,14.752c-0.252,0.252 -0.222,0.727 0.104,1.469c0.371,0.875 0.608,3.443 0.608,6.752c0,5.565 -0.786,9.958 -2.315,13.015c-0.697,1.365 -1.187,2.077 -2.626,3.784c-1.143,1.35 -1.291,1.707 -0.787,1.899c0.475,0.179 2.805,-1.335 4.037,-2.626c0.994,-1.069 1.736,-2.211 2.359,-3.636c0.282,-0.638 0.564,-1.143 0.624,-1.113c0.074,0.044 0.534,0.608 1.024,1.276c1.187,1.558 1.765,2.048 2.27,1.929c0.519,-0.118 0.861,-0.549 0.979,-1.261c0.208,-1.217 -0.816,-2.33 -2.893,-3.176c-0.92,-0.371 -1.054,-0.475 -0.98,-0.742c0.208,-0.742 0.668,-3.858 0.772,-5.179c0.089,-1.217 0.148,-1.439 0.371,-1.514c0.163,-0.059 0.831,-0.489 1.484,-0.979c0.668,-0.49 1.543,-1.098 1.974,-1.35c0.935,-0.564 1.127,-0.802 1.127,-1.366c0,-0.801 -2.077,-2.419 -2.656,-2.063c-0.119,0.075 -0.475,0.772 -0.757,1.544c-0.297,0.772 -0.697,1.662 -0.905,1.988l-0.356,0.594l-0.045,-2.226c-0.044,-2.271 0.134,-4.007 0.505,-4.897c0.252,-0.623 0.089,-1.054 -0.579,-1.514c-1.009,-0.683 -2.923,-1.024 -3.339,-0.608Z" style="fill:#f00;fill-rule:nonzero;"/><path d="M13.278,24.427c-0.149,0.178 -0.149,0.342 -0.015,0.787c0.475,1.454 1.929,3.814 2.537,4.14c0.831,0.416 1.826,-0.133 1.989,-1.128c0.133,-0.786 -0.149,-1.706 -0.742,-2.359c-1.009,-1.113 -3.309,-2.004 -3.769,-1.44Z" style="fill:#f00;fill-rule:nonzero;"/><path d="M29.839,13.891c-0.119,0.134 -0.237,0.683 -0.297,1.425c-0.178,2.196 -2.152,7.316 -3.873,10.002c-0.297,0.46 -0.534,0.935 -0.534,1.068c0,0.327 0.386,0.416 0.89,0.208c0.46,-0.193 2.093,-1.692 2.642,-2.419c0.296,-0.401 0.311,-0.401 0.994,-0.223c0.653,0.179 0.772,0.164 1.825,-0.237c2.968,-1.083 4.986,-1.499 5.461,-1.113c0.208,0.178 0.223,0.416 0.134,1.766c-0.193,2.909 -0.905,6.426 -1.454,7.183c-0.193,0.267 -0.238,0.267 -1.336,-0.045c-0.638,-0.178 -1.217,-0.312 -1.291,-0.312c-0.401,0 -0.267,0.505 0.326,1.291c0.357,0.475 0.817,1.128 1.009,1.455c0.475,0.816 1.039,1.41 1.336,1.41c0.312,0 1.321,-0.653 1.677,-1.084c0.979,-1.202 1.514,-2.983 2.107,-7.153c0.416,-2.938 0.564,-3.591 0.965,-4.333c0.148,-0.282 0.222,-0.638 0.178,-0.816c-0.119,-0.475 -1.083,-1.336 -1.974,-1.796l-0.801,-0.386l-1.484,0.505c-1.44,0.49 -5.862,1.603 -5.966,1.499c-0.029,-0.03 0.579,-1.351 1.365,-2.938c0.772,-1.588 1.41,-2.968 1.41,-3.058c0,-0.356 -1.128,-1.424 -1.855,-1.751c-0.86,-0.415 -1.157,-0.43 -1.454,-0.148Z" style="fill:#f00;fill-rule:nonzero;"/><path d="M29.661,26.579c-1.247,0.609 -2.493,0.861 -3.102,0.638c-0.267,-0.104 -0.697,-0.178 -0.949,-0.178c-0.668,0 -0.817,0.371 -0.55,1.276c0.179,0.594 0.193,1.544 0.119,5.402c-0.089,5.165 -0.059,5.506 0.742,6.559c1.633,2.152 4.912,3.206 9.379,3.043c3.146,-0.119 5.387,-0.668 7.212,-1.737c0.995,-0.593 1.766,-1.469 1.766,-2.033c0,-0.178 -0.237,-0.801 -0.519,-1.395c-0.297,-0.623 -0.638,-1.736 -0.816,-2.582c-0.312,-1.513 -0.638,-2.092 -1.128,-1.899c-0.238,0.089 -0.267,0.148 -0.653,2.315c-0.163,0.875 -0.401,1.84 -0.534,2.137c-0.49,1.024 -2.033,1.78 -4.363,2.137c-1.737,0.267 -5.758,0.089 -7.005,-0.297c-1.677,-0.534 -2.048,-1.247 -2.048,-3.962l0,-1.633l1.751,-0.326c0.95,-0.178 2.078,-0.371 2.479,-0.446c0.593,-0.089 0.757,-0.178 0.786,-0.415c0.03,-0.163 -0.089,-0.416 -0.237,-0.549c-0.282,-0.267 -0.282,-0.282 0.059,-1.454c0.193,-0.653 0.505,-1.47 0.712,-1.811c0.921,-1.528 0.921,-1.543 0.579,-2.003c-0.356,-0.475 -1.454,-1.039 -2.226,-1.128c-0.415,-0.06 -0.801,0.03 -1.454,0.341Zm0.326,2.805c-0.044,0.46 -0.163,1.187 -0.252,1.603l-0.163,0.742l-1.024,0.356c-0.564,0.193 -1.083,0.311 -1.143,0.252c-0.119,-0.119 0.149,-2.078 0.401,-2.938c0.133,-0.46 0.237,-0.564 0.786,-0.683c0.342,-0.089 0.817,-0.163 1.054,-0.178l0.43,-0.015l-0.089,0.861Z" style="fill:#f00;fill-rule:nonzero;"/></g></svg>

<?xml version="1.0" encoding="UTF-8" standalone="no"?>
<!DOCTYPE svg PUBLIC "-//W3C//DTD SVG 1.1//EN" "http://www.w3.org/Graphics/SVG/1.1/DTD/svg11.dtd">
<svg width="100%" height="100%" viewBox="0 0 57 57" version="1.1" xmlns="http://www.w3.org/2000/svg" xmlns:xlink="http://www.w3.org/1999/xlink" xml:space="preserve" xmlns:serif="http://www.serif.com/" style="fill-rule:evenodd;clip-rule:evenodd;">
    <g id="cir_1" transform="matrix(1.0198,0,0,1.03035,-0.0791987,-0.121408)">
        <circle cx="28.5" cy="28.5" r="24.5" style="fill:rgb(119,119,119);"/>
    </g>
    <circle id="cir_11" serif:id="cir_1" cx="28.5" cy="28.5" r="24.5" style="fill:rgb(250,250,250);"/>
    <circle id="cir_2" cx="28.5" cy="28.5" r="22.05" style="fill:rgb(250,250,250);stroke:rgb(255,0,0);stroke-width:2px;"/>
    <g>
        <path d="M18.041,14.752C17.789,15.004 17.819,15.479 18.145,16.221C18.516,17.096 18.753,19.664 18.753,22.973C18.753,28.538 17.967,32.931 16.438,35.988C15.741,37.353 15.251,38.065 13.812,39.772C12.669,41.122 12.521,41.479 13.025,41.671C13.5,41.85 15.83,40.336 17.062,39.045C18.056,37.976 18.798,36.834 19.421,35.409C19.703,34.771 19.985,34.266 20.045,34.296C20.119,34.34 20.579,34.904 21.069,35.572C22.256,37.13 22.834,37.62 23.339,37.501C23.858,37.383 24.2,36.952 24.318,36.24C24.526,35.023 23.502,33.91 21.425,33.064C20.505,32.693 20.371,32.589 20.445,32.322C20.653,31.58 21.113,28.464 21.217,27.143C21.306,25.926 21.365,25.704 21.588,25.629C21.751,25.57 22.419,25.14 23.072,24.65C23.74,24.16 24.615,23.552 25.046,23.3C25.981,22.736 26.173,22.498 26.173,21.934C26.173,21.133 24.096,19.515 23.517,19.871C23.398,19.946 23.042,20.643 22.76,21.415C22.463,22.187 22.063,23.077 21.855,23.403L21.499,23.997L21.454,21.771C21.41,19.5 21.588,17.764 21.959,16.874C22.211,16.251 22.048,15.82 21.38,15.36C20.371,14.677 18.457,14.336 18.041,14.752Z" style="fill:rgb(255,0,0);fill-rule:nonzero;"/>
        <path d="M13.278,24.427C13.129,24.605 13.129,24.769 13.263,25.214C13.738,26.668 15.192,29.028 15.8,29.354C16.631,29.77 17.626,29.221 17.789,28.226C17.922,27.44 17.64,26.52 17.047,25.867C16.038,24.754 13.738,23.863 13.278,24.427Z" style="fill:rgb(255,0,0);fill-rule:nonzero;"/>
        <path d="M29.839,13.891C29.72,14.025 29.602,14.574 29.542,15.316C29.364,17.512 27.39,22.632 25.669,25.318C25.372,25.778 25.135,26.253 25.135,26.386C25.135,26.713 25.521,26.802 26.025,26.594C26.485,26.401 28.118,24.902 28.667,24.175C28.963,23.774 28.978,23.774 29.661,23.952C30.314,24.131 30.433,24.116 31.486,23.715C34.454,22.632 36.472,22.216 36.947,22.602C37.155,22.78 37.17,23.018 37.081,24.368C36.888,27.277 36.176,30.794 35.627,31.551C35.434,31.818 35.389,31.818 34.291,31.506C33.653,31.328 33.074,31.194 33,31.194C32.599,31.194 32.733,31.699 33.326,32.485C33.683,32.96 34.143,33.613 34.335,33.94C34.81,34.756 35.374,35.35 35.671,35.35C35.983,35.35 36.992,34.697 37.348,34.266C38.327,33.064 38.862,31.283 39.455,27.113C39.871,24.175 40.019,23.522 40.42,22.78C40.568,22.498 40.642,22.142 40.598,21.964C40.479,21.489 39.515,20.628 38.624,20.168L37.823,19.782L36.339,20.287C34.899,20.777 30.477,21.89 30.373,21.786C30.344,21.756 30.952,20.435 31.738,18.848C32.51,17.26 33.148,15.88 33.148,15.79C33.148,15.434 32.02,14.366 31.293,14.039C30.433,13.624 30.136,13.609 29.839,13.891Z" style="fill:rgb(255,0,0);fill-rule:nonzero;"/>
        <path d="M29.661,26.579C28.414,27.188 27.168,27.44 26.559,27.217C26.292,27.113 25.862,27.039 25.61,27.039C24.942,27.039 24.793,27.41 25.06,28.315C25.239,28.909 25.253,29.859 25.179,33.717C25.09,38.882 25.12,39.223 25.921,40.276C27.554,42.428 30.833,43.482 35.3,43.319C38.446,43.2 40.687,42.651 42.512,41.582C43.507,40.989 44.278,40.113 44.278,39.549C44.278,39.371 44.041,38.748 43.759,38.154C43.462,37.531 43.121,36.418 42.943,35.572C42.631,34.059 42.305,33.48 41.815,33.673C41.577,33.762 41.548,33.821 41.162,35.988C40.999,36.863 40.761,37.828 40.628,38.125C40.138,39.149 38.595,39.905 36.265,40.262C34.528,40.529 30.507,40.351 29.26,39.965C27.583,39.431 27.212,38.718 27.212,36.003L27.212,34.37L28.963,34.044C29.913,33.866 31.041,33.673 31.442,33.598C32.035,33.509 32.199,33.42 32.228,33.183C32.258,33.02 32.139,32.767 31.991,32.634C31.709,32.367 31.709,32.352 32.05,31.18C32.243,30.527 32.555,29.71 32.762,29.369C33.683,27.841 33.683,27.826 33.341,27.366C32.985,26.891 31.887,26.327 31.115,26.238C30.7,26.178 30.314,26.268 29.661,26.579ZM29.987,29.384C29.943,29.844 29.824,30.571 29.735,30.987L29.572,31.729L28.548,32.085C27.984,32.278 27.465,32.396 27.405,32.337C27.286,32.218 27.554,30.259 27.806,29.399C27.939,28.939 28.043,28.835 28.592,28.716C28.934,28.627 29.409,28.553 29.646,28.538L30.076,28.523L29.987,29.384Z" style="fill:rgb(255,0,0);fill-rule:nonzero;"/>
    </g>
</svg>
